X:18521
T:Washington Hornpipe, The
M:4/4
L:1/8
S:Paul de Grae, Paul Brock, irtrad-l, 11/97
R:hornpipe
Z:Paul de Grae
K:A
ABcd eA (3AAA | fAgA aA (3AAA | fAeA dBcA | (3BcB GB AGFE |
ABcd eA (3AAA | fAgA aA (3AAA | fAeA dBcA |1 (3BcB GB A (3EFG :|
2 (3BcB GB A (3F_G^G ||:
K:D
AD (3DDD BD (3DDD | dcBA BAFD | dcBA BAGF | E2 CE DCB,A, |
AD (3DDD BD (3DDD | dcBA BAFD | dcBA BAGF |1 (3EFE CE D (3FG^G :|
2 (EFE CE D2 ||


